X: 1150
T: Here's Good Health to the Piper!
B:O'Neill's Music of Ireland
N:O'Neill's - 1150
Z:Transcribed by Stephen Foy (shf@access.digex.net)
Z:abc 1.6
M:9/8
R:slipjig
K:A
c2 A AcA ecA|ede acA e2 d|c2 A AcA ecA|BGB gdB d2 e:|
|:c2 a aec aed|c2 a aec e2 d|c2 a aec aec|BGB gdB d2 e:|


